X: 533
T: Jie shunshun
L: 1/8
M: 2/4
K: Bb
d'> c' b b [I:setbarnb 1]| 
b dc2 | 
d'> c' b b | 
b dc2 | 
c' c' d' c' | 
b dc2 | 
f f/ g/ f c | 
d/ f/ d/ c/B2 |]

@@@ Tune index: 9407
